X:290
T:The Navvy On The Shore
R:reel
M:4/4
L:1/8
K:Gmaj
GA|B2ge dBGB|AGAB AGEF|B2ge dBGB|AGAB (3ABA GA|
B2ge dBGB|AGAB AGE2|~g3d edBG|AGFA ~G3z||
(3gfg BA GABd|eBdB GABd|g2BA GABd|eBdB AGE2|
(3gfg BA GA (3Bcd|ed (3cBA GABd|~g3d edBG|AGFA ~G3z||

